X:1
T:Close to Thy Cross, O Christ
T:Close to Thy Cross, O Christ
T:William James Kirkpatrick
T:Josephus Anderson, 1897
T:Public Domain Courtesy of the Cyber Hymnal™
C:William James Kirkpatrick
Z:Public Domain
Z:Courtesy of the Cyber Hymnal™
%%score ( 1 2 ) ( 3 4 )
L:1/8
Q:1/4=140
M:6/4
K:E
V:1 treble 
V:2 treble 
V:3 bass 
V:4 bass 
V:1
 [EG]6 [FA]2 [EG]2 [FA]2 | [GB]4 [GB]2 [EG]4 [EB]2 | [DA]4 [DA]2 [EG]4 [EG]2 | [DF]6- [DF]4 [DF]2 | %4
w: 1.~Close, close to Thy|cross, O Christ! My|guilt- y soul would|fly; * Thy|
w: 2.~Close, close to Thy|cross, O Christ! My|bur- dened soul would|go; * There’s|
w: 3.~Close, close to Thy|cross, O Christ! My|tempt- ed soul would|stand; * No|
w: 4.~Close, close to Thy|cross, O Christ! My|wea- ry soul would|rest; * No|
 [EG]4 [EG]2 ([FA]2 [EG]2) [FA]2 | [GB]4 [GB]2 [EG]4 E2 | (F2 G2) [EA]2 [EG]4 [DF]2 | %7
w: flow- ing blood * can|wash me white From|sins * of crim- son|
w: sweet re- lief * in|Thy warm love For|ev- * ery grief I|
w: foe can harm, * no|work o’er- task, While|un- * der Thy kind|
w: wrath, no fear, * no|sha- dows there Dis-|turb * my qui- et|
 [B,E]6- [B,E]4 z2 ||"^Refrain" [GB]3 [GB] [GB]2 [EG]4 z2 | [Ec]3 [Ec] [Ec]2 [EB]4 z2 | %10
w: dye! *|||
w: know! *|Close to Thy cross,|close to Thy cross,|
w: hand! *|||
w: breast! *|||
 [DB]2 [DF]2 [DB]2 [Fd]4 [Ec]2 | B6- [FB]4 z2 | [EB]3 [EB] [EB]2 [EG]4 z2 | %13
w: |||
w: Je- sus, my Lord, I|cling; Shel-|* ter me there,|
w: |||
w: |||
 [EA]3 [EA] [EA]2 [Ee]4 z2 | [EB]3 [EA] [EG]2 [DA]4 [B,D]2 | [B,E]6- [B,E]4 z2 |] %16
w: |||
w: shel- ter me there,|’Neath Thy pro- tect- ing|wing. *|
w: |||
w: |||
V:2
 x12 | x12 | x12 | x12 | x12 | x10 E2 | E4 x8 | x12 || x12 | x12 | x12 | D4 E2 x6 | x12 | x12 | %14
 x12 | x12 |] %16
V:3
 [E,B,]6 [E,B,]2 [E,B,]2 [E,B,]2 | [E,C]4 [E,C]2 [E,B,]4 [G,B,]2 | %2
 [F,B,]4 [F,B,]2 [E,B,]4 [E,B,]2 | [B,,B,]6- [B,,B,]4 [B,,B,]2 | [E,B,]4 [E,B,]2 [E,B,]4 [E,B,]2 | %5
 [E,C]4 [E,C]2 [E,B,]4 [G,,B,]2 | [A,,C]4 [A,,C]2 [B,,B,]4 [B,,A,]2 | [E,G,]6- [E,G,]4 z2 || %8
 [E,E]3 [E,E] [E,E]2 [E,B,]4 z2 | [A,,A,]3 [A,,A,] [C,A,]2 [E,G,]4 z2 | %10
 [F,B,]2 [F,B,]2 [F,B,]2 [F,B,]4 [F,^A,]2 | (B,2 F,2 G,2 [B,,A,]4) z2 | %12
 [E,G,]3 [E,G,] [E,G,]2 [=D,B,]4 z2 | [C,A,]3 [C,E,] [C,E,]2 !fermata![=C,=G,]4 z2 | %14
 [B,,G,]3 [B,,F,] [B,,E,]2 [B,,F,]4 [B,,A,]2 | [E,,E,G,]6- [E,,E,G,]4 z2 |] %16
V:4
 x12 | x12 | x12 | x12 | x12 | x12 | x12 | x12 || x12 | x12 | x12 | B,,6- x6 | x12 | x12 | x12 | %15
 x12 |] %16

